X: 10473
T: Donkey In The Well
R: reel
M: 4/4
K: Dmajor
|:AFED B,2 DB,|A,EED E2 FE|D2 (3FED ADFD|ABde ~f3 e|
dBAF DEFD|AFED B,2 DB,|A,B,DE FAdB|AFEF D3 B:|
|:Affe fedB|~f3 d edBd|Beed edBA|FEDF EB, B,B|
Affe fedB|~f3 d edBd|ABdf e2 dB|AFEF D3 B:|

